X: 22090
T: Knocknamoe
R: jig
M: 6/8
K: Edorian
|:DEG GGA|FGA AAB|DEG GGA|FFF EDB|
DEG GGA|FGA AAB|G3 FED|1 BDE EEB:|2 Bde e3||
|:gfe ede|fed dBA|gfe ede|fed B3|
gfe ede|fed dBA|GGG FED|1 Bde e2f:|2 BDE EEB:|

